X:1
T:Trio Sonata in D major for 2 Oboes and Continuo, HWV 385
T:Trio Sonata in D major, HWV 385
T:for 2 Oboes and Continuo Transcribed for 2 Recorders and B/C in F major from IMSLP#397718 PDF File
T:George Frideric Handel (1685 — 1759) Arr. by : Siegfried Flesch (1933-2007)
T:Public Domain - Non-PD US
T:Public Domain - Non-PD US
T:Public Domain - Non-PD US
T:Public Domain - Non-PD US
T:Public Domain - Non-PD US
T:Public Domain - Non-PD US
T:Public Domain - Non-PD US
T:Public Domain - Non-PD US
T:Public Domain - Non-PD US
T:Public Domain - Non-PD US
C:George Frideric Handel (1685 — 1759)
Z:Public Domain - Non-PD US
%%score [ 1 2 3 ] { ( 4 6 7 8 ) | 5 }
L:1/8
Q:1/4=60
M:4/4
K:F
V:1 treble nm="Alto Rec." snm="A."
V:2 treble nm="Traverso" snm="Trv."
V:3 bass nm="Viola da gamba" snm="Vla. d. g."
V:4 treble nm="Harpsichord" snm="Hch."
V:6 treble 
V:7 treble 
V:8 treble 
V:5 bass 
V:1
"^1. Adagio" c | f2- f/g/4a/<Tg/f/4 f2- f/g/4a/<Tg/f/4 | g2- g/a/4b/<Ta/g/4 a/>f/e/>f/ ca | %3
 b/>f/e/>f/ df f/>e/f/>g/ Te>f | f2- f/g/4a/<Tg/f/4 (g/>e/)c z/ d'/b/(a/4g/4) | %5
 a/>f/d- dc =B/>G/e- e/>A/f- | f/>_B/g- g/>c/a- a/>d/b- b/>e/c'- | c'/b/b- b/a/a- a/g/g- g/f/f- | %8
 fgTe>f f/>c/a z/ c/g | z/ c/f z/ c/e z/ =B/c TB>c | c2 z2 z4 | z4 z2 z c | %12
 f2- f/g/4a/<Tg/f/4 f2- f/g/4a/<Tg/f/4 | g2- g/a/4b/<Ta/g/4 a(c'/b/) c'(b/a/) | %14
 g2 z/ e/d/c/ d2- d/>d/c/>B/ | c2- c/>c/B/>A/ B2- B/>B/A/>G/ | A(d/^c/) d2- de/d/ Tc>d | %17
 d/a/d- d/a/d- d/a/d- d/a/d- | de/d/ T^c>d d2 z/ e/f/>g/ | %19
 (a/>g/)a- a/>a/g/>f/ (g/>f/)g- g/>g/f/>e/ | f(a/>g/) g(b/>a/) ac f2- | %21
 fe/d/ Te3/2(d/4e/4) f>cf>c | f>cf>c g2- g/a/4b/<Ta/g/4 | ac fg/a/ dc/B/ ga/b/ | %24
 ed/c/ f2- fg/f/ e>f | !fermata!f8 |][M:4/4]"^2. Allegro"[Q:1/4=120] z2 c2 dd dc/B/ | %27
 cf B(B/A/) Bf B(A/G/) | Af A(G/F/) G3 G | F(A/G/) (A/=B/)B/c/ c(c/d/) (d/e/)(e/f/) | %30
 f/c/d/e/ ff f(e/d/) ee | ed/c/ dd d(c/=B/) cc | c(=B/A/) BB cc' _b/c'/b/c'/ | %33
 a/b/a/b/ c'e ff f(e/d/) | ee e(d/c/) dd d(c/B/) | cc' c'(b/a/) bb b(a/g/) | a2 z2 z2 g2 | %37
 aa a(g/f/) gc' g(f/e/) | fc' f(e/d/) ec' ed/c/ | d3 d c/d/c/d/ e/f/e/f/ | %40
 gc c'2- c'b/a/ b/c'/b/c'/ | ad d'2- d'c'/b/ c'2- | c'b/a/ b2- ba/g/ ab/c'/ | %43
 d'/c'/b/a/ g>f f(a/b/) c'(b/a/) | g(b/a/) (b/g/)(a/f/) g(b/a/) (b/g/)(a/f/) | %45
 g/c/d/e/ f/g/a/=b/ c'4- | c'4- c'/=b/c'/g/ (e/d/)(e/c/) | =b2 z (c'/b/) c'c' _b(a/g/) | %48
 a/F/G/A/ B/c/d/e/ f4- | f4- f/e/f/c/ (A/G/)(A/F/) | e2 z (f/e/) f(a/g/) ad | (dc) z c (c=B) z B | %52
 (c/d/)(d/e/) (e/f/)(f/g/) (e/g/)(f/a/) (g/=b/)(a/c'/) | =b(d/e/) (f/d/)(e/c/) d(f/e/) f/d/(e/c/) | %54
 dg- g/f/e/d/ ea/d/ d>c | c2 g2 aa a(g/f/) | gc' g(f/e/) fc' f(e/d/) | ec' ed/c/ d3 d | %58
 c(e/d/) e(f/e/) f(a/g/) a(b/a/) | b/f/g/a/ bb b(a/g/) aa | a(g/f/) gg g(f/e/) ff | %61
 ff/d/ ee f(a/g/) aa | a(g/f/) gg g(f/e/) ff | f(e/d/) ee e(d/^c/) dd | %64
 d(^c/=B/) cc d(f/e/) fe/d/ | ^c(g/f/) g2 z (f/e/) f2 | z (e/d/) e2 z (e/f/) g(f/e/) | %67
 f(e/d/) fa bb b(a/g/) | ad' a(g/f/) gd' g(f/e/) | fd' f(e/d/) Te3 e | %70
 d(f/e/) (f/g/)(g/a/) a(a/=b/) (b/^c'/)(c'/d'/) | d'/a/_b/=c'/ d'd' d'(c'/b/) c'c' | %72
 c'(=b/a/) bb b(a/g/) aa | a^g/^f/ gg a(e/=f/) (=g/e/)(f/d/) | e(g/f/) (g/e/)f/d/ eAaa | %75
 adgg gcff | fB (e/f/)(d/e/) f2 z2 | z8 | z8 | z8 | z2 g2 aa a(g/f/) | gc' g(f/e/) fc' f(e/d/) | %82
 ec' e(d/c/) d3 d | c(e/d/) e(f/e/) f(a/g/) a(b/a/) | b/f/g/a/ bb b(a/g/) aa | %85
 a(g/f/) gg g(f/e/) ff | f(e/d/) ee fc f(a/g/) | g(b/a/) (b/g/)(a/f/) g(b/a/) (b/g/)(a/f/) | %88
 gc'ad'- d'gec'- | c'fdb- b/c'/a/b/ g>f |[Q:1/4=60]"^Adagio" f2 z d e2 f2- | f2 e2 !fermata!f4 |] %92
[M:3/2]"^3. Affettuoso"[Q:1/2=80] z12 | (e2 f2) (g2 f2) e4- | e4 d8 | (g2 a2) (b2 a2) g4- | %96
 g4 (f2 e2) (d2 ^c2) | d4 d4 ^c4 | (d2 e2) (f2 g2) a4 | b12- | b4 a8- | a4 g6 fg | %102
 a4 (g2 f2) (f2 e2) | e4 =c'4 c'4 | (c'2 b2) b8- | b2 a2 (g2 a2) b4- | b2 a2 a8- | a2 g2 a8- | %108
 a2 b2 g6 f2 | f4 a4 a4 | b4 =b6 (ab) | c'4 ^c'6 =bc' | d'4 f'4 f'4 | (f'2 e'2) e'8- | %114
 e'2 d'2 (^c'2 d'2) e'4- | e'2 d'2 d'8- | d'2 ^c'2 .d'8- | d'4 d'4 ^c'4 | d'4 d4 a4- | a8 g4 | %120
 a12 |][M:3/4]"^4, Vivace"[Q:1/4=120] f2 z c (f/g/a/g/) | g2 z c (g/a/b/a/) | a2 z f ad' | %124
 d'2 z e gc' | c'2 z d fb | b2 z c ea | a2 z B dg | g2 z Acf | f2 e3 f | f(e/d/) (c/B/A/G/) AF | %131
 c/c'/b/a/ g/f/e/d/ ec | fc f/g/a/f/ d/a/g/f/ | ge/f/ g/f/e/d/ c/g/f/e/ | %134
 fd/e/ f/e/d/c/ =B/f/e/d/ | ec/d/ e/d/c/=B/ A/e/d/c/ | d=b/c'/ d'/c'/b/a/ g/d'/c'/b/ | %137
 c'a/=b/ c'/b/a/g/ f/c'/b/a/ | =b3 bc'b | c'd' =b3 c' | c'g eg cc' | z b/c'/ d'/c'/b/a/ g/b/a/g/ | %142
 ad fa dd' | z c ea Aa | (ag) z B dg | (gf) z A cf | (fe) z e ge | f2 z c fa | %148
 (b/c'/d'/c'/) (b/a/g/f/) (g/f/e/d/) | ef/e/ de f2- | fg e3 f | fe/d/ c/B/A/G/ AF | %152
 c/c'/b/a/ g/f/e/d/ ec | fc f/g/a/f/ d/a/g/f/ | ge/f/ g/f/e/d/ c/g/f/e/ | fd/e/ f/e/d/c/ B/f/e/d/ | %156
 e3/2(g/4a/4) b3/2(g/4a/4) b3/2(g/4a/4) | b6- | b3 (a/g/) a2- | %159
 a3/2(f/4g/4) a3/2(f/4g/4) a3/2(f/4g/4) | a6- | a3 (g/f/) g2- | %162
 g3/2(e/4f/4) g3/2(e/4f/4) g3/2(e/4f/4) | g6- | g3 f/e/ f2- | fd bf ^c'a | %166
 d'=c'/b/ a/g/f/e/ d/c'/b/a/ | be e3 d | (dA) (dA) d3/2e/4f/4 | (eA) (eA) e3/2f/4g/4 | f2 d2 d'2- | %171
 d'2 ^c'2 c'2 | d'(a/g/) (f/g/a/f/) (d/e/f/e/) | (e/a/g/f/) (e/f/g/e/) (c/d/e/d/) | %174
 (d/g/f/e/) (d/e/f/d/) (B/c/d/c/) | (c/f/e/d/) (c/d/e/c/) (A/B/c/B/) | %176
 (B/e/d/c/) (B/c/d/B/) (G/A/B/A/) | (A/G/F/G/) (A/B/c/d/) (c/d/e/f/) | %178
 (e/d/c/d/) (e/f/g/a/) (g/a/b/c'/) | bgbd'gb | ad d'4- | d'2 c'4- | c'2 b4- | b2 a4- | a2 g4 | %185
 a6- | a/g/f/g/ (a/g/f/g/) (a/b/c'/a/) | b6- | b/a/g/a/ (b/a/g/a/) (b/d'/c'/b/) | %189
 a2 z c (f/g/a/g/) | g2 z c (g/a/b/a/) | af/g/ a/g/f/e/ d/a/g/f/ | ge/f/ g/f/e/d/ c/g/f/e/ | %193
 fd/e/ f/e/d/c/ =B/f/e/d/ | ef d3 c | cG ce a2- | af Bd g2- | ge Ac f2- | fd GB e2 | %199
 fe/d/ c/B/A/G/ AF | c/c'/b/a/ g/f/e/d/ ec | fc f/g/a/f/ d/a/g/f/ | ge/f/ g/f/e/d/ c/g/f/e/ | %203
 fd/e/ f/e/d/c/ B/f/e/d/ | (e/d/c/d/) (e/f/d/e/) (f/e/f/g/) | fg e3 f | ff/g/ a2 z f/g/ | %207
 a2 z f/g/ af | gf Te3 f | !fermata!f6 |] %210
V:2
 z | z8 | z2 z c f2- f/g/4a/<Tg/f/4 | f2- f/g/4a/<Tg/f/4 g2- g/a/4b/<Ta/g/4 | %4
 a/>f/e/>f/ c/>A/F z/ g/e/(d/4c/4) (d/>B/)G | z/ a/f/(e/4d/4) e/>c/A- AG/>_B/ A3/2(B/4c/4) | %6
 B3/2c/4d/4 c3/2(d/4e/4) d3/2(e/4f/4) e3/2(f/4g/4) | %7
 f3/2(e/4d/4) e3/2(d/4c/4) d3/2(c/4B/4) c3/2(B/4A/4) | B/>c/B/>A/ TG>F Fz/f/ gz/e/ | %9
 =fz/d/ ez/c/ deTd>c | c2- c/d/4e/<Td/c/4 c2- c/d/4e/<Td/c/4 | %11
 d2- d/e/4f/<Te/d/4 e/>c/B/>A/ B/>B/A/>G/ | A/>f/e/>f/ cA B/>f/e/>f/ df- | %13
 f/>e/f/>g/ Te>f f3/2(a/4g/4) a3/2(g/4f/4) | eg c'2- c'b/>a/ b2- | %15
 b/c'/4b/<Ta/g/4 a2- a/b/4a/<Tg/f/4 g2- | g/a/4g/<Tf/e/4 f2- fg/f/ e>d | d>ad>a d>ad>a | %18
 e2- ef/g/ (f/>e/)(f/>g/) (a/>g/)(a/>b/) | (c/>B/)c- c/>c/B/>A/ (B/>A/)B- B/>B/A/>G/ | %20
 A(c/>B/) B(d/>c/) c2- c/>c/B/>A/ | B2- BTA/>G/ A/c/F- F/c/F- | %22
 F/c/F- F/c/F- FE/D/ E/F/4E/<TD/E/4 | F2 z2 z2 B2- | B2 A2 TG3 F | !fermata!F8 |][M:4/4] z8 | z8 | %28
 z8 | z4 z2 g2 | aa a(g/f/) gc' g(f/e/) | fc' f(e/d/) ec' e(d/c/) | d3 d ce/d/ e(d/e/) | %33
 f(f/g/) (g/a/)(a/b/) b/f/g/a/ bb | b(a/g/) aa a(g/f/) gg | g(f/e/) ff f(e/d/) e/f/d/e/ | %36
 f/c/d/e/ f/g/f/g/ e/d/e/f/ g/f/g/e/ | ff f(g/a/) bg b(a/g/) | aa a(g/f/) gg g(f/e/) | %39
 ff f(e/d/) e2 (c/d/)(c/d/) | (e/f/)(e/f/) g(f/e/) dG g2- | g2 f2 e2- e/a/g/a/ | %42
 d2- d/g/f/g/ c2- cf/e/ | d/e/f/g/ e>f f/e/f/g/ a(g/f/) | %44
 e(g/f/) (g/e/)(f/d/) e(g/f/) (g/e/)(f/d/) | e2 z2 z e e(a/g/) | gc c(f/e/) egcg | %47
 (d/e/)(d/e/) f(e/d/) (e/d/)e/c/ de | f2 z2 z A Ad/c/ | cF F(B/A/) AFcF | %50
 (G/A/)(G/A/) B(A/G/) A2 a z | (g/f/)(e/f/) g/c'/g/e/ (f/e/)(d/e/) f/c'/f/d/ | %52
 (e/f/)(f/g/) (g/a/)(a/g/) g2 z2 | z (=B/c/) (d/B/)(c/A/) B(d/c/) (d/B/)(c/A/) | %54
 (=B/A/)(B/c/) dB cccTB | c2 z2 z4 | z8 | z8 | z4 z2 c2 | dd d(c/B/) cf c(B/A/) | %60
 Bf B(A/G/) Af A(G/F/) | G3 G F2 z/ A/B/c/ | d/c/B/A/ B/d/c/B/ c/B/A/G/ A/c/B/A/ | %63
 B/A/G/F/ G/B/A/G/ A/G/F/E/ F/A/G/F/ | G/F/E/D/ E/G/F/E/ F(a/g/) a(g/f/) | %65
 e(e/d/) e2 z (d/^c/) d2 | z ^c/B/ c2 z (c/d/) e(d/c/) | d2- de/f/ g/d/e/f/ gg | %68
 g(f/e/) ff fe/d/ ee | e(d/^c/) dd d(c/=B/) cc | dA (d/e/)(e/f/) (f/e/)(f/g/) g3/2(f/4g/4) | %71
 aa a(g/f/) g(e/f/) g(f/e/) | ff fe/d/ e(c/d/) e(d/c/) | dd d(^c/=B/) c(c/d/) (e/c/)(d/B/) | %74
 ^c(e/d/) (e/c/)(d/=B/) c(=c/d/) (e/d/)(e/c/) | d2- d/c/d/B/ c2- c/B/c/A/ | B2- B/A/B/c/ A2 c2 | %77
 dd d(c/B/) cf c(B/A/) | Bf B(A/G/) Af A(G/F/) | G3 G FF/G/ A=B | cc/d/ ed/e/ f/c/d/e/ f!tenuto!f | %81
 f(e/d/) ee e(d/c/) d!tenuto!d | d(c/=B/) cc c(B/A/) BB | cc B/c/B/c/ A(c/B/) ce | %84
 ff f(e/d/) ee e(d/c/) | dd dc/B/ cc' c'(b/a/) | bb b(a/g/) a2 c(f/e/) | %87
 e(g/f/) (g/e/)(f/d/) e(g/f/) (g/e/)(f/d/) | e2 z a (g/f/)(e/f/) g(f/e/) | %89
 (f/e/)(d/e/) f(e/d/) effe | fcdB B(c/B/) A(B/A/) | G3 F F4 |][M:3/2] (d2 e2) (f2 e2) d4- | %93
 d4 ^c8 | (f2 g2) (a2 g2) f4- | f4 e8 | a4 d'4 f4 | (e2 f2) e6 d2 | d12 | (G2 A2) (B2 c2) d4 | %100
 e4 (f2 e2) (d2 c2) | (d2 e2) (e2 d2) (d2 ^c2) | ^c4 (e2 d2) (d2 c2) | ^c4 a4 a4 | (a2 g2) g8- | %105
 g2 f2 (e2 f2) z4 | g2 f2 f8 | f2 e2 f8- | f4 e8 | f8 z4 | z4 d4 d4 | e4 e6 (de) | f4 a4 a4 | %113
 (a2 g2) g8- | g2 f2 (e2 f2) g4- | g2 f2 f8- | f2 e2 f8- | f2 e2 e6 d2 | d4 z4 e4 | d8 d4 | %120
 !fermata!^c12 |][M:3/4] fe/d/ c/B/A/G/ AF | c/c'/b/a/ g/f/e/d/ ec | fc f/g/a/f/ d/a/g/f/ | %124
 ge/f/ g/f/e/d/ c/g/f/e/ | fd/e/ f/e/d/c/ B/f/e/d/ | ec/d/ e/d/c/B/ A/e/d/c/ | %127
 dB/c/ d/c/B/A/ G/d/c/B/ | cA/B/ c/B/A/G/ F/c/B/A/ | G/A/B/A/ G3 F | F2 z c (f/g/a/g/) | %131
 g2 z c (g/a/b/a/) | a2 z f ad' | d'2 z e gc' | c'2 z d f=b | =b2 z c ea | a2 z =Bdg | g2 z Acf | %138
 f/e/d/e/ fe/d/ e/f/d/e/ | c/g/a/d/ Td3 c | ce/f/ g/f/e/d/ c/e/d/c/ | BG Bd Gg | %142
 z f/g/ a/g/f/e/ d/a/g/f/ | e/a/g/f/ e/a/g/f/ e/d/e/c/ | d/g/f/e/ d/g/f/e/ d/c/d/B/ | %145
 c/f/e/d/ c/f/e/d/ c/B/c/A/ | B/b/a/b/ g/c'/b/c'/ e/c'/b/c'/ | a/b/c'/b/ a/g/f/e/ f/e/d/c/ | %148
 d2 z d B2- | B3 c AG | AB/A/ G3 F | F2 z c (f/g/a/g/) | g2 z c (g/a/b/a/) | a2 z a ad' | %154
 (d'c') z g c'c' | (c'b) z f fb | b3/2(e/4f/4) g3/2(e/4f/4) g3/2(e/4f/4) | gc eg ce | %158
 gf/e/ fe/d/ z/ c/B/G/ | F3/2(d/4e/4) f3/2(d/4e/4) f3/2(d/4e/4) | f=B df Bd | %161
 fe/d/ ed/c/ =B/A/G/F/ | E3/2^c/4d/4 e3/2(c/4d/4) e3/2(c/4d/4) | eA ^ce Ac | %164
 ed/^c/ d=c/B/ A/G/F/E/ | D2 d2 e2 | fa d'a fd | d2 d2 ^c2 | d2 z2 z2 | z6 | %170
 (dA) (dA) d3/2(e/4f/4) | (eA) (eA) e3/2(f/4g/4) | f2 a2 a2- | ae cA a2- | af dB g2- | ge cA f2- | %176
 fd BG e2 | fc (f/g/a/b/) (a/b/c'/d'/) | (g/f/e/d/) (c/d/e/f/) (e/f/g/a/) | g2 d2 d2- | %180
 d/e/f/g/ a/d'/c'/b/ a/g/a/f/ | g/f/e/f/ g/c'/b/a/ g/f/g/e/ | f/e/d/e/ f/b/a/g/ f/e/f/d/ | %183
 e/d/c/d/ e/a/g/f/ e/d/e/c/ | d/c/B/c/ d/g/f/e/ d/f/e/d/ | (^c/d/e/d/) (e/d/c/d/) (e/f/g/f/) | %186
 (f6 | f/)e/d/e/ (f/e/d/e/) (f/g/a/g/) | (g/f/e/f/) (g/f/e/f/) (g/b/a/g/) | a/f/e/d/ c/B/A/G/ AF | %190
 c/c'/b/a/ g/f/e/d/ ec | f2 z a ad | d2 z g gc | c2 z f f=B | c2 c2 =B2 | %195
 cc/d/ e/d/c/=B/ A/e/d/c/ | dB/c/ d/c/B/A/ G/d/c/B/ | cA/B/ c/B/A/G/ F/c/B/A/ | %198
 BG/A/ B/A/G/F/ E/B/A/G/ | a2 z c (f/g/a/g/) | g2 z c (g/a/b/a/) | a2 z f ad | (dc) z c gc | %203
 (cB) z B fB | B4 A2 | G2 G3 F | F2 z A/B/ c2 | z A/B/ cA/B/ cA | B/c/A/B/ G3 F | !fermata!F6 |] %210
V:3
 z | F,G,A,F, B,CDA, | B,G,CC, F,,F,A,F, | B,CDA, B,G,CC, | F,G,A,>F, C>C, G,>G, | %5
 D>D, A,>A,, E,>G,F,>A, | G,>B,A,>C B,>DC>E | D>G,C>F, B,>E,A,>A, | B,G,CC, F,>F,E,>E, | %9
 D,>D,C,>C, G,^F,G,G,, | C,D,E,C, F,G,A,E, | F,D,G,G,, C,E,G,E, | F,G,A,F, B,CDA, | %13
 B,G,CC, F,2 z B,, | C,E,G,C G,D,G,,G, | E,C,F,F,, D,B,,E,E,, | ^C,A,,D,A, B,G,A,A,, | %17
 D,2 z A,, B,,2 z F,, | G,,2 A,,2 D,2 z2 | A,/>A,,/C,/>A,,/ D,2 G,/>G,,/B,,/>G,,/ C,2 | %20
 F,2 z2 F,2 z F, | G,2 C,2 F,2 z C | D2 z A, B,G,CC, | F,G,A,F, B,A,B,G, | C2 DA, B,G,CC, | F,8 |] %26
[M:4/4] F,G,A,F, B,A,B,G, | A,G,A,F, G,F,G,E, | F,E,F,A, B,G,CC, | F,E,F,D, C,A,B,C | %30
 F,G,A,F, C2 z C | A,2 =B,2 G,2 A,E, | F,D,G,G,, C,2 z2 | z2 C2 DD DC/B,/ | %34
 CG CB,/A,/ B,F B,A,/G,/ | A,F A,G,/F,/ G,3 G, | F,A,/G,/ A,=B, CC/D/ EC | FC F2- FE/D/ EE | %38
 ED/C/ DD DC/=B,/ CC | C=B,/A,/ B,B, C2 z2 | C,/D,/C,/D,/ E,/F,/E,/F,/ G,G,, z G, | %41
 D,/E,/D,/E,/ F,/G,/F,/G,/ A,E,A,G, | F,D,G,D, E,C,F,F,, | B,,G,,C,C, F,2 z B,, | C,8- | %45
 C,2 z2 z/ C/=B,/C/ G,/C/F,/C/ | E,/C/=B,/C/ E,/C/D,/C/ C,4- | C,4- C,A,,B,,C, | %48
 F,,2 z2 z/ F/E/F/ C/F/B,/F/ | A,/F/E/F/ A,/F/G,/F/ F,4- | F,4- F,2 z F, | E,E,E,E, D,D,D,D, | %52
 C,2 z2 C,/E,/D,/F,/ E,/G,/F,/A,/ | G,8- | G,A,A,G, CF,G,G,, | C,D,E,C, F,G,A,F, | %56
 E,2 z A, D,2 z G, | C,CA,E, F,D,G,G,, | C,B,,A,,G,, F,,F,A,F, | B,B,,D,B,, F,2 z F, | %60
 G,2 z G, A,2 A, z | B,G,CC, F,2 z/ F,/G,/A,/ | B,B,, z/ B,/A,/G,/ A,A,, z/ A,/G,/F,/ | %63
 G,G,, G,/F,/E,/ F,F,, z/ F,/E,/D,/ z/ | E,E,, z A,, D,2 z G,, | %65
 A,,2 z/ A,/G,/A,/ A,,2 z/ A,/G,/A,/ | A,,2 z/ A,/G,/A,/ A,,A,A,,A, | D,2 F,D, G,2 z G, | %68
 DD,F,D, E,2 z E, | F,2 z G,E,A,A,, z | D,2 z4 E,2 | F,F, F,E,/D,/ E,A, E,D,/C,/ | %72
 D,A, D,C,/=B,,/ C,A, C,B,,/A,,/ | =B,,3 B,, A,,4- | A,,4- A,,A,/B,/ C/B,/C/A,/ | %75
 B,/D/C/D/ B,/A,/B,/G,/ A,/C/B,/C/ A,/G,/A,/F,/ | G,/B,/A,/B,/ G,C, F,G,A,F, | B,A,B,G, A,2 z A, | %78
 G,2 z G, F,G,A,D | B,G,CC, F,E,F,D, | E,F,E,C, F,G,A,F, | CC,E,C, DD,F,D, | EE,G,E, F,D,G,G,, | %83
 C,2 z4 C2 | DD DC/B,/ CF CB,/A,/ | B,F B,A,/G,/ A,F A,G,/F,/ | G,2 z G, F,2 z F, | C,8- | %88
 C,/D,/E,/C,/ F,/E,/F,/D,/ E,2 z E, | D,2 z D, C,F,CC, | F,2 z B, C2 F,2 | C2 C,2 !fermata!F,4 |] %92
[M:3/2] D4 D,4 D4 | A,12 | D,12 | E,8 ^C,4 | D,8 F,4 | G,4 A,4 A,,4 | D,12 | G,12 | C,4 F,8 | %101
 B,4 B,,4 B,4 | A,12- | A,4 F,4 F,4 | G,6 A,2 G,2 F,2 | E,12 | F,6 G,2 F,2 E,2 | D,6 E,2 D,2 C,2 | %108
 B,,4 C,8 | F,12 | z4 F,4 F,4 | E,4 E,6 E,2 | D,4 D,4 D,4 | E,6 F,2 E,2 D,2 | ^C,12 | %115
 D,6 E,2 D,2 C,2 | B,,6 C,2 B,,2 A,,2 | G,,4 A,,8 | D,4 z4 C,4 | B,,12 | !fermata!A,,12 |] %121
[M:3/4] F,2 z F,FF, | E,2 z E,EE, | F,2 F2 z F, | E,2 E2 z E, | D,2 D2 z D, | C,2 C2 z C, | %127
 B,,2 B,2 z B,, | A,,2 A,2 z A,, | B,,2 C,4 | F,2 z F,FF, | E,2 z E,EE, | F,A,CFF,D | E,G,=B,EE,C | %134
 D,F,=B,DD,G, | C,E,G,CC,A, | =B,,D,G,=B,B,,G, | A,,C,E,A,A,,F, | G,,G,=B,G,CG, | E,F, G,2 G,,2 | %140
 C,2 C2 z C, | G,2 G,,2 z G,, | D,2 D2 z D, | C,2 C2 z C, | B,,2 B,2 z B,, | A,,2 A,2 z A,, | %146
 G,,2 C,D, E,C, | F,A, CA, F,F,, | B,,F, D,F, D,B,, | C,2 z C F,C | B,2 C2 C,2 | F,2 z F, CF, | %152
 E, z E, CE, z | F,A, CA, F,D, | E,G, CG, E,C, | D,F, B,F, D,B,, | C,6- | %157
 C,/C/B,/C/ G,/C/ B,/C/ E,/C/B,/C/ | C,2 F,2 A,,2 | =B,,6 | %160
 =B,,/=B,/A,/B,/ F,/B,/A,/B,/ D,/B,/A,/B,/ | =B,,2 E,2 E,,2 | A,,6- | %163
 A,,/A,/G,/A,/ E,/A,/G,/A,/ ^C,/A,/G,/A,/ | A,,2 D,4 | G,6 | F,6 | G,2 A,2 A,,2 | D,4 z2 | %169
 ^C,4 z2 | D,4 z2 | A,4 z2 | D,2 D2 z D, | C,2 C2 z C, | B,,2 B,2 z B,, | A,,2 A,2 z A,, | %176
 G,,2 G,2 z G,, | F,,2 F,2 z2 | C,2 C2 z2 | G,2 z B,DG, | F,2 z DF,D | E,2 z CE,C | D,2 z B,D,B, | %183
 C,2 z A,C,A, | B,,2 z G,B,,G, | A,,4 z2 | D,4 z2 | C,4 z2 | E,4 z2 | F,2 z F, F,F, | %190
 E,2 z E, E,E, | F,2 z F, F,F, | E,2 z E, E,E, | D,2 z D, D,D, | C,2 G,2 G,,2 | C,E, G,C C,A, | %196
 B,,D, F,B, B,,G, | A,,C, E,A, A,,F, | G,,B,, D,G, G,,C, | F,2 z F, F,F, | E,2 z E, CE, | %201
 F,F CA, F,D, | E,E CG, E,C, | D,D B,G,D,B,, | C,2 z CDA, | B,G, C2 C,2 | F,F,/F,/ F,F, F,F, | %207
 F,F,/F,/ F,F, F,F, | B,2 C2 C,2 | F,6 |] %210
V:4
 z | c2 f2 defc | dBGc [CA]2 c2 | [Fd][Be][Af][Fc] dBGc | ABc>f [Ge]>[EG] [DB]z/[Bd]/ | %5
 [Af]z/[FAd]/ dc =B>e [Ae]>[cf] | [Bf]>[dg] [cg]>[Aea] [Ad]>[Bf] [Be]>[cg] | f>fe>e d>dc>c | %8
 G/>A/B/>d/ cB/>A/ [CA]>[Ac] [Gc]>[Gc] | [Fcf]>[F=Bf][Gce]>[Gce] [_Bd][Ae] [Ac]2 | [Gc]2 ce c2 ec | %11
 cd/>c/ =B2 [EGc][G_B][EB][Gc] | AB .c2 de f2 | fd e2 [Acf]2 z [Gdg] | [ce]3 c [DGc]2 [DGB]2 | %15
 [CB]2 [CFA]2 [B,A]2 [B,EG]2 | [A,G]2 F/>A/=B/>^c/ d2 c2 | [FAd]2 z [FAd] [FAd]2 z [FAd] | %18
 [EBd]2 [EA^c]2 [FAd]2 z2 | [EA=c]2 [FAc]2 [DFB]2 [EA]2 | [CFA]2 z2 [FAc]2 z [Acf] | %21
 [Bf]2 [GBe]2 [Acf]2 z [Acf] | [Acf]2 z [cf] dBcB | [cf]2 fc [Fd][cf] d2 | %24
 [GBe]2 [Ff]2 d/>c/B/>A/ Gc | !fermata![FA]8 |][M:4/4] [Ac]B c2 [FBd]3 [GBe] | [Ff]2 f2 f2 e[Gc] | %28
 [FAc]3 [Fc] d/e/f f[Be] | [Acf]3 [F=B] c2 G2 | AB c2 fe z [GBe] | [Fce]2 [Fd]2 [E=Bd]2 c2 | %32
 [Dc]2 [D=B]2 [EGc]2 z2 | z2 [EA]2 [F_B]2 [FBf]2 | e2 [Ae]2 d2 [Gd]2 | c2 [Fcf]2 [Bf]3 [GBe] | %36
 [Acf]>[Be] [cf][dg] [Ge][EG]/[F=B]/ [Gc][G_Be] | [Acf]2 [Ac]2 dc [GBc]2 | %38
 [FAc]2 [FAc]2 [EGc]2 [Gce]2 | [Ae]2 [Gdf]2 [Gce]2 z2 | G c2 [ce] [Gd]2 z [GBe] | %41
 [Af]A d[df] [Ae]2 [EAc]2 | [Dc]2 [DB]2 [CB]2 [CFA]2 | [FG]2 [EG]2 [A,CF]2 z [DA] | [EG] z z2 z4 | %45
 [DGc]2 z2 z [Gce] [=Be][Af] | [Gcg][Ge][cg][=Bf] [Gce]2 z2 | [F=Bd]2 z2 c2 dc/_B/ | %48
 [CFA]2 z2 z [Acf] f2 | f3 e [Acf]2 z2 | [GBf]2 z2 [Acf]2 z [Ad] | dc/=B/ [Gc]2 cB/A/ [FB]2 | %52
 [EGc]2 z2 [ceg][Af][Gcg][FAcd] | [=Bd] z z2 z4 | z [cd] g2 [Gce][Acd] d2 | [Gc]2 ce [cf]2 f2 | %56
 [Gcg]2 z [Gce] [Acf]2 z [F=Bd] | [Gce]2 [ce]2 [cd]3 [=Bd] | [EGc]2 [GBe]2 [Acf]2 c2 | %59
 [FBd]2 [FBd]2 [Fc]2 z [Acf] | [Bd]2 z [Beg] [Bg][Af] z [cf] | [Gf]2 [Ge]2 [Acf]2 [FAc]2 | %62
 [FAd]2 [Ed]2 [EGc]2 [DFc]2 | [DFB]2 [EB]2 [EA]2 [DFAd]2 | [Gd]2 z [EG^c] [FAd]2 z [F=c] | %65
 [EA^c]2 [Gce]2 [FAd]2 [Adf]2 | [A^ce]2 [EAc]2 [Ace]2 [Acg]2 | [Adf]2 d2 z2 z [Bdg] | %68
 [Adg]2 [Adf]2 z2 z [G^ce] | [GAe]2 z [FAd] [Ed]2 [E^c]2 | [FAd]2 z2 z2 [G^c]2 | %71
 [Ad]2 [Ada]2 d=c [cg]2 | [cf]2 =Bd z4 | [Ad]2 ^G2 [E^c] z z2 | z4 z =c [Ae]2 | %75
 [Ad]2 [Gd]2 [Gc]2 [Fc]2 | [FB]2 [EB]2 ABcd/_e/ | [FBd]3 [=EBd] [Fc]2 z [Fc] | %78
 [FBd]2 z [GBe] [cf]2 f2 | f/e/f/d/ e>f [Acf]3 [F=Bf] | [Gce]2 ce [cf]2 f2 | fe/d/cB F2 [Ad]2 | %82
 [F=Bd]2 [EGc]2 [Dc]2 [DGB]2 | [EGc]2 z2 z2 [EA]2 | [FB]2 [Bf]2 [GB]A Ac | [Ad]2 d2 [Gc]2 c2 | %86
 [DFB]2 z [EB] [CFA]2 z [CFA] | [EG] z z2 z4 | [EG] c2 d [Gd]2 z [Gc] | %89
 [Fc]2 z [FB] [EB][FA][FG][EG] | [CFA]2 z [FAd] [EGB]2 [CFA]2 | G c2 B !fermata![CFA]4 |] %92
[M:3/2] A4 d2 ^c2 d4 | d4 ^c4 [=ce]4 | e4 d4 [Af]4 | f4 e8 | e4 d8 | [Ed]4 [EAd]4 [EG^c]4 | d12 | %99
 B4 G2 A2 B4 | [GBe]4 [Acf]8 | [Af]4 [Gdg]4 [Gd]4 | [EA^c]8 [FAd]4 | [EA^c]4 [A=cf]4 [Acf]4 | d12 | %105
 d8 c4 | c12 | [Ac]12 | [DAd]4 c4 B4 | [FA]12 | z4 [=Bd]2 [Ac]2 [G_Bd]4 | %111
 [Gc]4 [^ce]2 [df]2 [eg]2 [ce]2 | [Af]4 [FAd]2 [EGc]2 [FAd]4 | [FAd]4 c8 | [Be]12 | [Ad]12 | %116
 [Ad]4 d2 e2 d2 ^c2 | [Fd]4 [EAd]4 [EG^c]4 | [FAd]4 z4 [EAe]4 | F2 E2 F2 A2 e2 z2 | %120
 !fermata![A^c]12 |][M:3/4] [FAcf]2 z [CA][Ac][Acf] | [Gcg]2 z [Gc][Gce][Bc-g] | %123
 [Acf]2 [Ac]2 z [Ad] | [Gd]2 [Gc]2 z [Gc] | [Fc]2 [FB]2 z [FB] | [EB]2 [EA]2 z [EA] | %127
 [DA]2 [DG]2 z [DG] | [CG]2 [CF]2 z [CF] | [DFG-]2 G/A/B/A/ c/B/A/G/ | [CFA]2 z [CA][Ac][Acf] | %131
 [Gcg]2 z [Gc][Gce][Bcg] | [Acf]4 [Ae]2 | [Gdg]4 [Gce]2 | F4 [F=Bd]2 | [E=Be]4 [EAc]2 | %136
 [Dd]4 [DG=B]2 | [CGc]4 [CFA]2 | [DF=B]2 dc/B/ [EGc][GBd] | [Gce][Acd] [EGc]2 [DF=B]2 | %140
 [EGc]2 [Gce]2 z [ceg] | [Bdg]2 z2 z [DGB] | [DFA]2 [FAd]2 z [Adf] | [Ae]2 [EA]2 z [Ae] | %144
 [Ad]2 [Gd]2 z [Gd] | [Gc]2 [Fc]2 z [Fc] | [FB]2 [CB]2 [CB]2 | [CFA]2 [Acf]2 [FAc]2 | %148
 [_FBd]4 [FBd]2 | [EGB]2 z2 [Acf]2 | [Gg] [Ge]4 z | [Acf]2 z [Ac][Acf][Ac] | %152
 [Gc]2 z [Gc][Gce][Gcg] | [Acf]4 [Adf]2 | [Gdg]2 [Gce]2 [Gce]2 | [Fcf]2 [FBd]2 [cf]2 | eg bg ec | %157
 [GB]6 | [EA]2 [CFB]2 [CFA]2 | Adfafd | [DF]4 =B,2 | [FAd]2 [A=Be]2 [GBe]2 | [^ce]2 G2 ce | [eg]6 | %164
 [A^cg]2 [Adg]2 [Adf]2 | fe/f/ g/f/e/d/ ^c/d/e/c/ | [Ad]4 [Adf]2 | fe [Adf]2 [^ce]2 | [FAd]4 z2 | %169
 [EAe]4 z2 | [FAd]4 z2 | d2 ^c2 z2 | [FAd]2 [FA]2 z [Af] | [Ae]2 [EA]2 z [Ae] | %174
 [Ad]2 [DG]2 z [Gd] | [Gc]2 [CF]2 z [Fc] | F2 E2 z [EB] | [CFA]2 [A,CF]2 z2 | [Gce]2 [EGc]2 z2 | %179
 d/g/f/e/ d/b/a/g/ f/e/d/c/ | [Ad]2 z f d2 | [Gc]2 z ege | [Fcf]2 z .dfd | [EBe]2 z cec | %184
 [FAd]2 z BG[Bd] | [EA^c]4 z2 | [FAd]4 z2 | [GBf]4 z2 | [GBc]4 z2 | [FAc]2 z A/B/cf | %190
 [Gcg]2 z [CG][Gc][CGB] | [CFA]2 z [Ac] [DAd]2 | [Gd]2 z [Gd] [CGc]2 | [Fc]2 z [Fc] [=B,F=B]2 | %194
 [EGc]2 [EGc]2 [DF=B]2 | [EGc]4 [EAe]2 | [FAd]4 [DGd]2 | [EGc]4 [CFc]2 | [DFB]4 [B,EB]2 | %199
 [CFA]2 z [Ac] [Acf]2 | [Gcg]2 z ceg | [Acf]4 [Adf]2 | [dg]2 [ce]2 [Gce]2 | [cf]2 [Bd]2 [FBd]2 | %204
 [EGB]2 z [GBe] f2 | [fg]f [Ge]4 | [Acf][Ac]/[GB]/ [Ac]2 z f/e/ | [Acf][Ac]/B/ z f/e/ f2 | %208
 [cg]2 [Acf]2 [GBe]2 | !fermata![FAccf]6 |] %210
V:5
 z | F,G,A,F, B,CDA, | B,G,CC, F,,F,A,F, | B,CDA, B,G,CC, | F,G,A,>F, C>C, G,>G, | %5
 D>D, A,>A,, E,>G,F,>A, | G,>B,A,>C B,>DC>E | D>G,C>F, B,>E,A,>A, | B,G,CC, F,>F,E,>E, | %9
 D,>D,C,>C, G,^F,G,G,, | C,D,E,C, F,G,A,E, | F,D,G,G,, C,E,G,E, | F,G,A,F, B,CDA, | %13
 B,G,CC, F,2 z B,, | C,E,G,C G,D,G,,G, | E,C,F,F,, D,B,,E,E,, | ^C,A,,D,A, B,G,A,A,, | %17
 D,2 z A,, B,,2 z F,, | G,,2 A,,2 D,2 z2 | A,/>A,,/C,/>A,,/ D,2 G,/>G,,/B,,/>G,,/ C,2 | %20
 F,2 z2 F,2 z F, | G,2 C,2 F,2 z C | D2 z A, B,G,CC, | F,G,A,F, B,A,B,G, | C2 DA, B,G,CC, | F,8 |] %26
[M:4/4] F,G,A,F, B,A,B,G, | A,G,A,F, G,F,G,E, | F,E,F,A, B,G,CC, | F,E,F,D, C,A,B,C | %30
 F,G,A,F, C2 z C | A,2 =B,2 G,2 A,E, | F,D,G,G,, C,2 z2 | z2 C2 DD DC/B,/ | %34
 CG CB,/A,/ B,F B,A,/G,/ | A,F A,G,/F,/ G,3 G, | F,A,/G,/ A,=B, CC/D/ EC | FC F2- FE/D/ EE | %38
 ED/C/ DD DC/=B,/ CC | C=B,/A,/ B,B, C2 z2 | C,/D,/C,/D,/ E,/F,/E,/F,/ G,G,, z G, | %41
 D,/E,/D,/E,/ F,/G,/F,/G,/ A,E,A,G, | F,D,G,D, E,C,F,F,, | B,,G,,C,C, F,2 z B,, | C,8- | %45
 C,2 z2 z/ C/=B,/C/ G,/C/F,/C/ | E,/C/=B,/C/ E,/C/D,/C/ C,4- | C,4- C,A,,B,,C, | %48
 F,,2 z2 z/ F/E/F/ C/F/B,/F/ | A,/F/E/F/ A,/F/G,/F/ F,4- | F,4- F,2 z F, | E,E,E,E, D,D,D,D, | %52
 C,2 z2 C,/E,/D,/F,/ E,/G,/F,/A,/ | G,8- | G,A,A,G, CF,G,G,, | C,D,E,C, F,G,A,F, | %56
 E,2 z A, D,2 z G, | C,CA,E, F,D,G,G,, | C,B,,A,,G,, F,,F,A,F, | B,B,,D,B,, F,2 z F, | %60
 G,2 z G, A,2 A, z | B,G,CC, F,2 z/ F,/G,/A,/ | B,B,, z/ B,/A,/G,/ A,A,, z/ A,/G,/F,/ | %63
 G,G,, G,/F,/E,/ F,F,, z/ F,/E,/D,/ z/ | E,E,, z A,, D,2 z G,, | %65
 A,,2 z/ A,/G,/A,/ A,,2 z/ A,/G,/A,/ | A,,2 z/ A,/G,/A,/ A,,A,A,,A, | D,2 F,D, G,2 z G, | %68
 DD,F,D, E,2 z E, | F,2 z G,E,A,A,, z | D,2 z4 E,2 | F,F, F,E,/D,/ E,A, E,D,/C,/ | %72
 D,A, D,C,/=B,,/ C,A, C,B,,/A,,/ | =B,,3 B,, A,,4- | A,,4- A,,A,/B,/ C/B,/C/A,/ | %75
 B,/D/C/D/ B,/A,/B,/G,/ A,/C/B,/C/ A,/G,/A,/F,/ | G,/B,/A,/B,/ G,C, F,G,A,F, | B,A,B,G, A,2 z A, | %78
 G,2 z G, F,G,A,D | B,G,CC, F,E,F,D, | E,F,E,C, F,G,A,F, | CC,E,C, DD,F,D, | EE,G,E, F,D,G,G,, | %83
 C,2 z4 C2 | DD DC/B,/ CF CB,/A,/ | B,F B,A,/G,/ A,F A,G,/F,/ | G,2 z G, F,2 z F, | C,8- | %88
 C,/D,/E,/C,/ F,/E,/F,/D,/ E,2 z E, | D,2 z D, C,F,CC, | F,2 z B, C2 F,2 | C2 C,2 !fermata!F,4 |] %92
[M:3/2] D4 D,4 D4 | A,12 | D,12 | E,8 ^C,4 | D,8 F,4 | G,4 A,4 A,,4 | D,12 | G,12 | C,4 F,8 | %101
 B,4 B,,4 B,4 | A,12- | A,4 F,4 F,4 | G,6 A,2 G,2 F,2 | E,12 | F,6 G,2 F,2 E,2 | D,6 E,2 D,2 C,2 | %108
 B,,4 C,8 | F,12 | z4 F,4 F,4 | E,4 E,6 E,2 | D,4 D,4 D,4 | E,6 F,2 E,2 D,2 | ^C,12 | %115
 D,6 E,2 D,2 C,2 | B,,6 C,2 B,,2 A,,2 | G,,4 A,,8 | D,4 z4 C,4 | B,,12 | !fermata!A,,12 |] %121
[M:3/4] F,2 z F,FF, | E,2 z E,EE, | F,2 F2 z F, | E,2 E2 z E, | D,2 D2 z D, | C,2 C2 z C, | %127
 B,,2 B,2 z B,, | A,,2 A,2 z A,, | B,,2 C,4 | F,2 z F,FF, | E,2 z E,EE, | F,A,CFF,D | E,G,=B,EE,C | %134
 D,F,=B,DD,G, | C,E,G,CC,A, | =B,,D,G,=B,B,,G, | A,,C,E,A,A,,F, | G,,G,=B,G,CG, | E,F, G,2 G,,2 | %140
 C,2 C2 z C, | G,2 G,,2 z G,, | D,2 D2 z D, | C,2 C2 z C, | B,,2 B,2 z B,, | A,,2 A,2 z A,, | %146
 G,,2 C,D, E,C, | F,A, CA, F,F,, | B,,F, D,F, D,B,, | C,2 z C F,C | B,2 C2 C,2 | F,2 z F, CF, | %152
 E, z E, CE, z | F,A, CA, F,D, | E,G, CG, E,C, | D,F, B,F, D,B,, | C,6- | %157
 C,/C/B,/C/ G,/C/ B,/C/ E,/C/B,/C/ | C,2 F,2 A,,2 | =B,,6 | %160
 =B,,/=B,/A,/B,/ F,/B,/A,/B,/ D,/B,/A,/B,/ | =B,,2 E,2 E,,2 | A,,6- | %163
 A,,/A,/G,/A,/ E,/A,/G,/A,/ ^C,/A,/G,/A,/ | A,,2 D,4 | G,6 | F,6 | G,2 A,2 A,,2 | D,4 z2 | %169
 ^C,4 z2 | D,4 z2 | A,4 z2 | D,2 D2 z D, | C,2 C2 z C, | B,,2 B,2 z B,, | A,,2 A,2 z A,, | %176
 G,,2 G,2 z G,, | F,,2 F,2 z2 | C,2 C2 z2 | G,2 z B,DG, | F,2 z DF,D | E,2 z CE,C | D,2 z B,D,B, | %183
 C,2 z A,C,A, | B,,2 z G,B,,G, | A,,4 z2 | D,4 z2 | C,4 z2 | E,4 z2 | F,2 z F, F,F, | %190
 E,2 z E, E,E, | F,2 z F, F,F, | E,2 z E, E,E, | D,2 z D, D,D, | C,2 G,2 G,,2 | C,E, G,C C,A, | %196
 B,,D, F,B, B,,G, | A,,C, E,A, A,,F, | G,,B,, D,G, G,,C, | F,2 z F, F,F, | E,2 z E, CE, | %201
 F,F CA, F,D, | E,E CG, E,C, | D,D B,G,D,B,, | C,2 z CDA, | B,G, C2 C,2 | F,F,/F,/ F,F, F,F, | %207
 F,F,/F,/ F,F, F,F, | B,2 C2 C,2 | F,6 |] %210
V:6
 x | ABcA F2 AF | F2 E2 x2 FA | x4 F2 E2 | F2 F>[Ac] x4 | x2 [EA]>[EA] .AG/>_B/ x2 | x8 | %7
 c/>A/B B/>G/A A/>F/G G/E/F | F2 x6 | x6 FF | EF G2 A=BcG | AFDG/>F/ x4 | C2 FA F2 Ac | %13
 d/>c/B/>A/ Gc/>B/ x4 | G/>A/B/>A/ B[EG] x4 | GE x2 FD x2 | E^C [A,D]G F[E_B][EA][EG] | x8 | x8 | %19
 x8 | x8 | x8 | x4 [Gf]2 [Ge]2 | ABcA x2 GB | x2 A/>B/c [FG]2 E2 | C8 |][M:4/4] F3 A x4 | %27
 cBcA BA B2 | x4 FB/A/ G2 | x4 [EG]F[DF]E | F3 [Af]2 x3 | x6 [EA]G | AFGF x4 | x8 | BA x2 A2 x2 | %35
 GA x6 | x8 | x4 [GB]2 x2 | x8 | x8 | E/F/E/F/ G/A/G/A/ cB x2 | F/G/F/G/ A/B/A/B/ dc x2 | %42
 AFGF GE x2 | DB,CB, x4 | C8 | x8 | x8 | x4 G2 G2 | x6 [Ae][Bd] | c[Ac][Fc][GB] x4 | x8 | %51
 G2 x2 F2 x2 | x8 | G8- | G2 d=B x2 [Gc][FB] | E/D/E/F/ G2 A/G/A/=B/ cA | x8 | x2 AG A/G/F/E/ F2 | %58
 x6 FA | x4 BA x2 | AG x6 | dBcB x4 | x2 GB x4 | x8 | x8 | x8 | x8 | x2 AF x4 | x8 | x4 _BGAG | %70
 x8 | x4 g2 x2 | x2 f2 [=Be]2 [Ae]2 | x2 d2 A4- | A4- A2 x2 | x8 | x4 C F2 A | x8 | x4 ABcA | %79
 [Gd]Bc[GB] x4 | x2 G2 A_BcA | [Gc]2 GE E2 DF | x4 AF x2 | x8 | x4 e2 e2 | x2 GB x2 FA | x8 | C8- | %88
 C/F/G/E/ A/G/A/F/ x4 | x8 | x8 | F2 [EG]2 x4 |][M:3/2] F2 G2 A4 [FA]4 | [EA]8 F2 G2 | %94
 [FA]8 d2 =c2 | [GB]8 [GA]4 | [FA]8 A4 | x12 | .A12 | d12 | x12 | x12 | x12 | x12 | A4 G8 | %105
 [GB]12 | G4 F8 | F6 G2 F2 E2 | x4 [EG]8 | C8 x4 | x4 G4 x4 | D4 G6 G2 | x12 | x4 G2 A2 G2 F2 | %114
 G8 A4 | G4 F2 G2 F2 E2 | F2 G2 [FA]8 | x12 | x12 | x4 d6 x2 | E12 |][M:3/4] x6 | x6 | x6 | x6 | %125
 x6 | x6 | x6 | x6 | x6 | x6 | x6 | x6 | x6 | c2 dc x2 | x6 | A2 =BA x2 | x6 | x2 [FG] x3 | x6 | %140
 x6 | x6 | x6 | x6 | x6 | x6 | x2 EFGE | x6 | x6 | x6 | d2 x4 | x6 | x6 | x6 | x6 | x6 | %156
 [GB]2 e2 [GB]2 | E4 C2 | x6 | [DF]2 [Ad]2 [Ad]2 | x6 | x6 | GE^CE G2 | c4 A2 | x6 | x4 [EA]2 | %166
 FD/E/ F2 x2 | c2 x2 AG | x6 | x6 | x6 | x6 | x6 | x6 | x6 | x6 | x6 | x6 | x6 | B2 x d B2 | %180
 x3 A2 [FA] | x3 [Gc]2 [Gc] | x3 [FB]2 [FB] | x3 [EA]2 [EA] | x3 D/E/ FG/F/ | x6 | x6 | x6 | x6 | %189
 x3 CA[Ac] | x6 | x6 | x6 | x6 | x6 | x6 | x6 | x6 | x6 | x6 | x3 G2 [Bc] | x6 | x6 | F4 x2 | %204
 x4 Ac | d/c/B/A/ .c2 B2 | x3 F/G/ [Ac]2 | x2 [Ac]3 [Ac] | x6 | x6 |] %210
V:7
 x | x8 | x8 | x8 | x8 | x8 | x8 | x8 | x7/4 E2 x17/4 | x8 | x8 | x8 | x8 | x8 | x8 | x8 | x8 | %17
 x8 | x8 | x8 | x8 | x8 | x8 | x8 | x8 | x8 |][M:4/4] x8 | x8 | x8 | x8 | x4 [Gc]2 x2 | x8 | x8 | %33
 x8 | x8 | x8 | x8 | x8 | x8 | x8 | x8 | x8 | x8 | x8 | x8 | x8 | x8 | x8 | x8 | x8 | x8 | x8 | %52
 x8 | x8 | x8 | x8 | x8 | x8 | x8 | x8 | x8 | x8 | x8 | x8 | x8 | x8 | x8 | x8 | x8 | x8 | x8 | %71
 x8 | x8 | x8 | x8 | x8 | x8 | x8 | x8 | x8 | x8 | x8 | x8 | x8 | x8 | x8 | x8 | x8 | x8 | x8 | %90
 x8 | x8 |][M:3/2] x12 | x12 | x12 | x12 | x12 | x12 | F4 D2 E2 F4 | F12 | x12 | x12 | x12 | x12 | %104
 B8 B2 A2 | x12 | A8 A2 G2 | x12 | x12 | x12 | x12 | x12 | x12 | x12 | x12 | x12 | x12 | x12 | %118
 x12 | x12 | x12 |][M:3/4] x6 | x6 | x6 | x6 | x6 | x6 | x6 | x6 | x6 | x6 | x6 | x6 | x6 | x6 | %135
 x6 | x6 | x6 | x6 | x6 | x6 | x6 | x6 | x6 | x6 | x6 | x6 | x6 | x6 | x6 | x c2 B2 x | x6 | x6 | %153
 x6 | x6 | x6 | x6 | x6 | x6 | x6 | x6 | x6 | x6 | x6 | x6 | x6 | x6 | x6 | x6 | x6 | x6 | x6 | %172
 x6 | x6 | x6 | x6 | x6 | x6 | x6 | x6 | x6 | x6 | x6 | x6 | x6 | x6 | x6 | x6 | x6 | x6 | x6 | %191
 x6 | x6 | x6 | x6 | x6 | x6 | x6 | x6 | x6 | x6 | x6 | x6 | x6 | x6 | x6 | x6 | x6 | x6 | x6 |] %210
V:8
 x | x8 | x8 | x8 | x8 | x8 | x8 | x8 | x8 | x8 | x8 | x8 | x8 | x8 | x8 | x8 | x8 | x8 | x8 | x8 | %20
 x8 | x8 | x8 | x8 | x8 | x8 |][M:4/4] x8 | x8 | x8 | x8 | x8 | x8 | x8 | x8 | x8 | x8 | x8 | x8 | %38
 x8 | x8 | x8 | x8 | x8 | x8 | x8 | x8 | x8 | x4 E F2 E | x8 | x8 | x8 | x8 | x8 | x8 | x8 | x8 | %56
 x8 | x8 | x8 | x8 | x5 c2 x | x8 | x8 | x8 | x8 | x8 | x8 | x8 | x8 | x8 | x8 | x8 | x8 | x8 | %74
 x8 | x8 | x8 | x8 | x8 | x8 | x8 | x8 | x8 | x8 | x8 | x8 | x8 | x8 | x8 | x8 | x8 | x8 |] %92
[M:3/2] x12 | x12 | x12 | x12 | x12 | x12 | x12 | x12 | x12 | x12 | x12 | x12 | x12 | x12 | x12 | %107
 x12 | x12 | x12 | x12 | x12 | x12 | x12 | x12 | x12 | x12 | x12 | x12 | x12 | x12 |][M:3/4] x6 | %122
 x6 | x6 | x6 | x6 | x6 | x6 | x6 | x6 | x6 | x6 | x6 | x6 | x6 | x6 | x6 | x6 | x6 | x6 | x6 | %141
 x6 | x6 | x6 | x6 | x6 | x6 | x6 | x6 | x6 | x6 | x6 | x6 | x6 | x6 | x6 | x6 | x6 | x6 | x6 | %160
 x6 | x6 | x6 | x6 | x6 | x6 | x6 | x6 | x6 | x6 | x6 | x6 | x6 | x6 | x6 | x6 | x6 | x6 | x6 | %179
 x6 | x6 | x6 | x6 | x6 | x6 | x6 | x6 | x6 | x6 | x6 | x6 | x6 | x6 | x6 | x6 | x6 | x6 | x6 | %198
 x6 | x6 | x6 | x6 | x6 | x6 | x6 | x6 | x6 | x6 | x6 | x6 |] %210

